icon/pk/xigua.svg

<svg viewBox="0 0 48 48" fill="none" xmlns="http://www.w3.org/2000/svg" height="1em" width="1em">
  <path d="M24.0003 42.3334C34.1255 42.3334 42.3337 34.1253 42.3337 24.0001C42.3337 13.8749 34.1255 5.66675 24.0003 5.66675C13.8751 5.66675 5.66699 13.8749 5.66699 24.0001C5.66699 26.4858 6.80727 27.6871 8.61419 28.7448C10.4211 29.8025 13.8204 29.6269 16.1327 31.7014C18.445 33.776 18.6011 37.1507 19.0799 38.7905C19.5588 40.4303 21.5146 42.3334 24.0003 42.3334Z" fill="#2F88FF" stroke="black" stroke-width="3.66667" stroke-linejoin="round"/>
  <path d="M19.5264 18.5412C18.988 19.8493 18.7188 21.3866 18.7188 23.153C18.7188 24.8329 18.8971 26.496 19.2539 28.1424L19.2539 28.1424C19.6113 29.7916 21.2381 30.8389 22.8873 30.4815C22.9472 30.4685 23.0067 30.4537 23.0657 30.4372C24.8653 29.9322 26.4325 29.2711 27.7673 28.454C29.0152 27.6899 30.1779 26.7253 31.2556 25.56L31.2556 25.56C32.4013 24.3211 32.3258 22.3879 31.0868 21.2421C31.0514 21.2094 31.0152 21.1775 30.9783 21.1465C29.7116 20.0817 28.3858 19.1254 27.0008 18.2774C25.5547 17.3921 24.1384 16.8579 22.7519 16.6749L22.7518 16.6749C21.3779 16.4935 20.0539 17.2596 19.5264 18.5412Z" fill="#43CCF8" stroke="white" stroke-width="3.66667" stroke-linejoin="round"/>
</svg>

<svg width="48" height="48" fill="none" xmlns="http://www.w3.org/2000/svg"><path d="M24 42.333c10.126 0 18.334-8.208 18.334-18.333 0-10.125-8.209-18.333-18.334-18.333S5.667 13.875 5.667 24c0 2.486 1.14 3.687 2.947 4.745 1.807 1.057 5.206.882 7.519 2.956 2.312 2.075 2.468 5.45 2.947 7.09.479 1.64 2.435 3.542 4.92 3.542Z" fill="#2F88FF" stroke="#000" stroke-width="3.667" stroke-linejoin="round"/><path d="M19.526 18.541c-.538 1.308-.807 2.846-.807 4.612 0 1.68.178 3.343.535 4.99a3.056 3.056 0 0 0 3.812 2.294c1.8-.505 3.367-1.166 4.701-1.983 1.248-.764 2.41-1.729 3.489-2.894a3.056 3.056 0 0 0-.278-4.413 32.764 32.764 0 0 0-3.977-2.87c-1.446-.885-2.863-1.42-4.25-1.602a3.056 3.056 0 0 0-3.225 1.866Z" fill="#43CCF8" stroke="#fff" stroke-width="3.667" stroke-linejoin="round"/></svg>
